Papirus/22x22/actions/labplot-xy-curve.svg

<?xml version="1.0" encoding="UTF-8" standalone="no"?>
<!--Created with Inkscape (http://www.inkscape.org/)-->
<svg xmlns:dc="http://purl.org/dc/elements/1.1/" xmlns:cc="http://creativecommons.org/ns#" xmlns:rdf="http://www.w3.org/1999/02/22-rdf-syntax-ns#" xmlns:svg="http://www.w3.org/2000/svg" xmlns="http://www.w3.org/2000/svg" xmlns:sodipodi="http://sodipodi.sourceforge.net/DTD/sodipodi-0.dtd" xmlns:inkscape="http://www.inkscape.org/namespaces/inkscape" width="22" height="22" id="svg4355" version="1.1" inkscape:version="0.91 r13725" sodipodi:docname="labplot-xy-curve.svg">
    <defs id="defs4357">
        <style type="text/css" id="current-color-scheme">
            .ColorScheme-Text { color:#4d4d4d; } .ColorScheme-Background { color:#eff0f1; } .ColorScheme-Highlight { color:#3daee9; } .ColorScheme-ViewText { color:#31363b; } .ColorScheme-ViewBackground { color:#fcfcfc; } .ColorScheme-ViewHover { color:#93cee9; } .ColorScheme-ViewFocus{ color:#3daee9; } .ColorScheme-ButtonText { color:#31363b; } .ColorScheme-ButtonBackground { color:#eff0f1; } .ColorScheme-ButtonHover { color:#93cee9; } .ColorScheme-ButtonFocus{ color:#3daee9; }
        </style>
    </defs>
    <sodipodi:namedview id="base" pagecolor="#000000" bordercolor="#666666" borderopacity="1.0" inkscape:pageopacity="0.0" inkscape:pageshadow="2" inkscape:zoom="8.2781691" inkscape:cx="-9.7281798" inkscape:cy="-7.6240324" inkscape:document-units="px" inkscape:current-layer="g3845" showgrid="false" width="0px" height="0px" fit-margin-top="0" fit-margin-left="0" fit-margin-right="0" fit-margin-bottom="0" inkscape:window-width="1600" inkscape:window-height="847" inkscape:window-x="0" inkscape:window-y="30" inkscape:window-maximized="1" inkscape:showpageshadow="false" inkscape:snap-bbox="true" inkscape:snap-global="false" showguides="false">
        <inkscape:grid type="xygrid" id="grid4114"/>
        <sodipodi:guide position="2.0000011,19.999996" orientation="18,0" id="guide4120"/>
        <sodipodi:guide position="2.0000011,1.9999962" orientation="0,18" id="guide4122"/>
        <sodipodi:guide position="20.000001,1.9999962" orientation="-18,0" id="guide4124"/>
        <sodipodi:guide position="20.000001,19.999996" orientation="0,-18" id="guide4126"/>
        <sodipodi:guide position="3.0000011,18.999996" orientation="16,0" id="guide4128"/>
        <sodipodi:guide position="3.0000011,2.9999962" orientation="0,16" id="guide4130"/>
        <sodipodi:guide position="19.000001,2.9999962" orientation="-16,0" id="guide4132"/>
        <sodipodi:guide position="19.000001,18.999996" orientation="0,-16" id="guide4134"/>
    </sodipodi:namedview>
    <metadata id="metadata4360">
        <rdf:RDF>
            <cc:Work rdf:about="">
                <dc:format>
                    image/svg+xml
                </dc:format>
                <dc:type rdf:resource="http://purl.org/dc/dcmitype/StillImage"/>
                <dc:title/>
            </cc:Work>
        </rdf:RDF>
    </metadata>
    <g inkscape:label="Capa 1" inkscape:groupmode="layer" id="layer1" transform="translate(-544.57141,-742.93359)">
        <g id="g3845" transform="translate(0,-0.53516)">
            <path style="font-size:medium;font-style:normal;font-variant:normal;font-weight:normal;font-stretch:normal;text-indent:0;text-align:start;text-decoration:none;line-height:normal;letter-spacing:normal;word-spacing:normal;text-transform:none;direction:ltr;block-progression:tb;writing-mode:lr-tb;text-anchor:start;baseline-shift:baseline;fill:#000000;fill-opacity:1;fill-rule:nonzero;stroke:none;stroke-width:0.41041371;marker:none;visibility:visible;display:inline;overflow:visible;enable-background:accumulate;font-family:Sans;-inkscape-font-specification:Sans;opacity:0.5" d="M 16.78125 5.96875 L 16.75 6.0253906 C 16.675747 6.0129528 16.600949 6 16.523438 6 C 15.705637 6 14.99808 6.7232175 15 7.5234375 C 14.999104 7.8820986 15.146635 8.211476 15.376953 8.4707031 L 12.255859 14.025391 C 12.179806 14.012324 12.102929 14 12.023438 14 C 12.010177 14 11.997576 14.003529 11.984375 14.003906 L 10.441406 9.6699219 C 10.780712 9.3965904 11.001101 8.9823677 11 8.5234375 C 11.002 7.7232175 10.341227 7 9.5234375 7 C 8.7056375 7 7.99808 7.7232175 8 8.5234375 C 7.999855 8.5814345 8.0104927 8.6368707 8.0175781 8.6933594 L 5.5371094 9.9335938 C 5.2726236 9.6700304 4.9175893 9.5 4.5234375 9.5 C 3.7056375 9.5 2.99808 10.223218 3 11.023438 C 2.998 11.823668 3.7056375 12.5 4.5234375 12.5 C 5.3412275 12.5 6.00192 11.823668 6 11.023438 C 6.0001838 10.949909 5.9891251 10.878362 5.9785156 10.806641 L 8.4609375 9.5664062 C 8.7358107 9.8292928 9.1074172 9.9937386 9.5078125 9.9980469 L 11.070312 14.365234 C 10.728051 14.651527 10.498918 15.072594 10.5 15.523438 C 10.498 16.323668 11.205637 17 12.023438 17 C 12.841227 17 13.50192 16.323668 13.5 15.523438 C 13.500924 15.153849 13.354965 14.804237 13.123047 14.53125 L 16.21875 9.03125 L 16.808594 13.201172 C 16.335686 13.468979 15.998683 13.974625 16 14.523438 C 15.998 15.323668 16.705637 16 17.523438 16 C 18.341227 16 19.00192 15.323668 19 14.523438 C 19.00177 13.815424 18.484362 13.171055 17.798828 13.03125 L 17.199219 8.828125 C 17.674681 8.5790687 18.001346 8.084283 18 7.5234375 C 18.001776 6.8127687 17.480385 6.1657984 16.791016 6.0292969 L 16.78125 5.96875 z " transform="translate(544.57141,743.46875)" id="path5273-9-0"/>
        </g>
    </g>
</svg>

<?xml version="1.0" encoding="UTF-8" standalone="no"?>
<!--Created with Inkscape (http://www.inkscape.org/)-->
<svg id="svg4355" xmlns:rdf="http://www.w3.org/1999/02/22-rdf-syntax-ns#" xmlns="http://www.w3.org/2000/svg" height="22" width="22" version="1.1" xmlns:cc="http://creativecommons.org/ns#" xmlns:dc="http://purl.org/dc/elements/1.1/">
 <defs id="defs4357">
 </defs>
 <metadata id="metadata4360">
  <rdf:RDF>
   <cc:Work rdf:about="">
    <dc:format>image/svg+xml</dc:format>
    <dc:type rdf:resource="http://purl.org/dc/dcmitype/StillImage"/>
    <dc:title/>
   </cc:Work>
  </rdf:RDF>
 </metadata>
 <g id="layer1" transform="translate(-544.57 -742.93)">
  <g id="g3845" transform="translate(0 -.53516)">
   <path id="path5273-9-0" opacity=".5" style="block-progression:tb;text-indent:0;text-transform:none" d="m16.781 5.9688l-0.031 0.0566c-0.074-0.0124-0.149-0.0254-0.227-0.0254-0.817 0-1.525 0.7232-1.523 1.5234-0.001 0.3587 0.147 0.6881 0.377 0.9473l-3.121 5.5543c-0.076-0.013-0.153-0.025-0.233-0.025-0.013 0-0.025 0.004-0.039 0.004l-1.543-4.3341c0.34-0.2733 0.56-0.6875 0.559-1.1465 0.002-0.8002-0.659-1.5234-1.4766-1.5234-0.8178 0-1.5253 0.7232-1.5234 1.5234-0.0001 0.058 0.0105 0.1135 0.0176 0.17l-2.4805 1.2402c-0.2645-0.2636-0.6195-0.4336-1.0137-0.4336-0.8178 0-1.5253 0.723-1.5234 1.523-0.002 0.801 0.7056 1.477 1.5234 1.477s1.4785-0.676 1.4766-1.477c0.0002-0.073-0.0109-0.145-0.0215-0.216l2.4824-1.2406c0.2749 0.2629 0.6465 0.4273 1.0469 0.4316l1.5622 4.367c-0.342 0.287-0.571 0.708-0.57 1.158-0.002 0.801 0.706 1.477 1.523 1.477 0.818 0 1.479-0.676 1.477-1.477 0.001-0.369-0.145-0.719-0.377-0.992l3.096-5.4998 0.59 4.1698c-0.473 0.268-0.81 0.774-0.809 1.322-0.002 0.801 0.706 1.477 1.523 1.477 0.818 0 1.479-0.676 1.477-1.477 0.002-0.708-0.516-1.352-1.201-1.492l-0.6-4.2029c0.476-0.249 0.802-0.7438 0.801-1.3047 0.002-0.7106-0.52-1.3576-1.209-1.4941l-0.01-0.0605z" transform="translate(544.57 743.47)"/>
  </g>
 </g>
</svg>
